<?xml version="1.0" encoding="UTF-8"?>
<map version="1.10" tiledversion="1.11.2" orientation="orthogonal" renderorder="right-down" width="32" height="20" tilewidth="64" tileheight="64" infinite="0" nextlayerid="3" nextobjectid="9">
 <tileset firstgid="1" source="default.tsx"/>
 <layer id="1" name="Tile Layer 1" width="32" height="20">
  <data encoding="csv">
43,43,43,43,43,43,43,43,43,43,43,43,43,43,43,43,43,43,43,43,43,43,43,43,43,43,43,43,43,43,43,43,
43,43,43,8,11,11,11,11,11,9,11,11,10,43,43,43,43,43,43,43,43,43,43,43,43,43,43,43,43,43,43,43,
43,43,43,12,1,1,26,1,42,12,1,1,12,43,43,43,43,43,43,43,43,43,43,43,43,43,43,43,43,43,43,43,
43,43,43,12,1,1,1,1,1,28,1,1,12,43,43,43,43,43,43,43,43,43,43,43,43,43,43,43,43,43,43,43,
43,43,43,12,1,1,1,1,1,12,1,1,12,43,43,43,43,43,43,43,43,43,43,43,43,43,43,43,43,43,43,43,
43,43,43,12,1,1,1,1,1,12,14,1,12,43,43,43,43,43,43,43,43,43,43,43,43,43,43,43,43,43,43,43,
43,43,43,12,1,1,1,1,1,5,11,9,4,43,43,43,43,43,43,43,43,43,43,43,43,43,43,43,43,43,43,43,
43,43,43,12,1,1,1,1,1,12,35,12,43,43,43,43,43,43,43,43,43,43,43,43,43,43,43,43,43,43,43,43,
43,43,43,12,24,1,1,1,1,28,1,12,43,43,43,43,43,43,43,43,43,43,43,43,43,43,43,43,43,43,43,43,
43,43,43,12,1,1,1,1,33,12,1,12,43,43,43,43,43,43,43,43,43,43,43,43,43,43,43,43,43,43,43,43,
43,43,43,2,11,11,11,11,11,3,11,4,43,43,43,43,43,43,43,43,43,43,43,43,43,43,43,43,43,43,43,43,
43,43,43,43,43,43,43,43,43,43,43,43,43,43,43,43,43,43,43,43,43,43,43,43,43,43,43,43,43,43,43,43,
43,43,43,43,43,43,43,43,43,43,43,43,43,43,43,43,43,43,43,43,43,43,43,43,43,43,43,43,43,43,43,43,
43,43,43,43,43,43,43,43,43,43,43,43,43,43,43,43,43,43,43,43,43,43,43,43,43,43,43,43,43,43,43,43,
43,43,43,43,43,43,43,43,43,43,43,43,43,43,43,43,43,43,43,43,43,43,43,43,43,43,43,43,43,43,43,43,
43,43,43,43,43,43,43,43,43,43,43,43,43,43,43,43,43,43,43,43,43,43,43,43,43,43,43,43,43,43,43,43,
43,43,43,43,43,43,43,43,43,43,43,43,43,43,43,43,43,43,43,43,43,43,43,43,43,43,43,43,43,43,43,43,
43,43,43,43,43,43,43,43,43,43,43,43,43,43,43,43,43,43,43,43,43,43,43,43,43,43,43,43,43,43,43,43,
43,43,43,43,43,43,43,43,43,43,43,43,43,43,43,43,43,43,43,43,43,43,43,43,43,43,43,43,43,43,43,43,
43,43,43,43,43,43,43,43,43,43,43,43,43,43,43,43,43,43,43,43,43,43,43,43,43,43,43,43,43,43,43,43
</data>
 </layer>
 <objectgroup id="2" name="waypoint layer">
  <object id="3" x="736" y="224">
   <properties>
    <property name="waypoint" type="object" value="0"/>
   </properties>
   <point/>
  </object>
  <object id="4" x="416" y="224">
   <properties>
    <property name="link-0" type="object" value="3"/>
    <property name="link-1" type="object" value="5"/>
   </properties>
   <point/>
  </object>
  <object id="5" x="416" y="544">
   <properties>
    <property name="link-0" type="object" value="7"/>
    <property name="link-1" type="object" value="6"/>
   </properties>
   <point/>
  </object>
  <object id="6" x="672" y="544">
   <properties>
    <property name="link-0" type="object" value="8"/>
   </properties>
   <point/>
  </object>
  <object id="7" x="288" y="544">
   <point/>
  </object>
  <object id="8" x="672" y="480">
   <point/>
  </object>
 </objectgroup>
</map>
