<?xml version="1.0" encoding="UTF-8"?>
<map version="1.10" tiledversion="1.11.2" orientation="orthogonal" renderorder="right-down" width="34" height="16" tilewidth="64" tileheight="64" infinite="0" nextlayerid="3" nextobjectid="18">
    <tileset firstgid="1" source="default.tsx"/>
    <layer id="1" name="Tile Layer 1" width="34" height="16">
        <data encoding="csv">
8,11,11,11,11,11,11,11,11,11,11,11,11,11,11,11,11,11,11,11,11,11,11,11,11,11,11,11,11,11,11,11,11,10,
12,1,1,1,1,1,1,1,1,1,1,1,1,1,1,1,1,1,1,1,1,1,1,1,1,1,1,1,1,1,1,1,1,12,
12,1,1,1,1,1,1,1,1,1,1,1,1,1,1,1,1,1,1,1,1,1,1,1,1,1,1,1,1,1,1,1,1,12,
12,1,1,8,19,19,11,9,11,11,11,11,19,19,9,19,19,11,11,11,11,11,9,11,11,11,11,11,19,19,10,1,1,12,
12,33,27,12,1,1,1,12,39,1,1,1,1,1,12,1,1,1,1,1,35,39,12,35,1,1,35,1,1,1,12,1,1,12,
5,11,11,4,1,1,1,12,1,1,1,1,1,1,12,1,1,1,1,1,1,35,12,1,1,1,1,1,1,1,12,1,1,12,
12,39,17,35,1,1,1,12,1,1,1,1,1,1,12,1,1,1,1,1,1,1,12,1,1,1,1,1,1,1,12,1,1,12,
12,1,1,1,1,1,1,12,1,1,35,14,1,1,12,1,1,14,1,1,1,1,12,1,1,1,1,14,1,1,12,1,1,12,
12,1,15,16,1,1,1,12,1,1,1,1,1,1,12,1,16,1,1,1,1,1,12,1,15,15,1,1,1,1,12,1,1,12,
12,1,1,16,1,1,1,12,1,1,1,1,1,1,12,1,16,1,1,16,1,1,12,15,16,1,1,1,1,1,12,1,1,12,
12,1,16,1,1,1,1,12,1,1,1,1,1,1,12,1,1,1,1,1,15,1,12,1,1,1,1,1,1,1,12,1,1,12,
12,1,1,1,1,1,1,12,1,1,1,1,1,1,12,1,1,1,15,1,1,1,12,1,1,1,1,1,1,1,12,1,1,12,
12,1,1,14,1,1,1,12,1,1,35,14,1,1,12,1,1,14,1,1,1,1,12,1,16,1,1,14,1,1,12,1,1,12,
12,1,1,1,1,1,1,28,1,1,1,1,1,1,28,1,1,1,1,1,1,1,28,1,1,1,1,1,1,1,12,1,1,12,
12,1,1,1,1,1,1,28,1,1,1,1,1,1,28,1,1,1,1,1,1,1,28,1,1,1,1,1,1,39,12,27,33,12,
2,11,11,11,11,11,11,3,11,11,11,11,11,11,3,11,11,11,11,11,11,11,3,11,11,11,11,11,11,11,3,11,11,4
</data>
    </layer>
    <objectgroup id="2" name="waypoints">
        <object id="1" x="160" y="96">
            <properties>
                <property name="link-0" type="object" value="3"/>
                <property name="link-1" type="object" value="2"/>
            </properties>
            <point/>
        </object>
        <object id="2" x="352" y="96">
            <properties>
                <property name="link-0" type="object" value="1"/>
                <property name="link-1" type="object" value="3"/>
                <property name="link-2" type="object" value="11"/>
                <property name="link-3" type="object" value="4"/>
            </properties>
            <point/>
        </object>
        <object id="3" x="864" y="96">
            <properties>
                <property name="link-0" type="object" value="2"/>
                <property name="link-1" type="object" value="4"/>
                <property name="link-2" type="object" value="13"/>
                <property name="link-3" type="object" value="1"/>
            </properties>
            <point/>
        </object>
        <object id="4" x="2080" y="96">
            <properties>
                <property name="link-0" type="object" value="17"/>
                <property name="link-1" type="object" value="3"/>
                <property name="link-2" type="object" value="2"/>
                <property name="link-3" type="object" value="1"/>
            </properties>
            <point/>
        </object>
        <object id="5" x="96" y="160">
            <properties>
                <property name="link-0" type="object" value="1"/>
                <property name="link-1" type="object" value="6"/>
                <property name="link-2" type="object" value="7"/>
                <property name="link-3" type="object" value="8"/>
            </properties>
            <point/>
        </object>
        <object id="6" x="1056" y="160">
            <properties>
                <property name="link-0" type="object" value="9"/>
                <property name="link-1" type="object" value="5"/>
                <property name="link-2" type="object" value="7"/>
                <property name="link-3" type="object" value="8"/>
            </properties>
            <point/>
        </object>
        <object id="7" x="1888" y="160">
            <properties>
                <property name="link-0" type="object" value="15"/>
                <property name="link-1" type="object" value="8"/>
                <property name="link-2" type="object" value="6"/>
                <property name="link-3" type="object" value="5"/>
            </properties>
            <point/>
        </object>
        <object id="8" x="2016" y="160">
            <properties>
                <property name="link-0" type="object" value="7"/>
                <property name="link-1" type="object" value="16"/>
                <property name="link-2" type="object" value="6"/>
                <property name="link-3" type="object" value="5"/>
            </properties>
            <point/>
        </object>
        <object id="9" x="1056" y="288">
            <properties>
                <property name="link-0" type="object" value="6"/>
                <property name="link-1" type="object" value="10"/>
            </properties>
            <point/>
        </object>
        <object id="10" x="1376" y="608">
            <properties>
                <property name="link-0" type="object" value="14"/>
                <property name="link-1" type="object" value="9"/>
            </properties>
            <point/>
        </object>
        <object id="11" x="352" y="800">
            <properties>
                <property name="link-0" type="object" value="12"/>
                <property name="link-1" type="object" value="2"/>
            </properties>
            <point/>
        </object>
        <object id="12" x="288" y="864">
            <properties>
                <property name="link-0" type="object" value="11"/>
                <property name="link-1" type="object" value="13"/>
                <property name="link-2" type="object" value="14"/>
                <property name="link-3" type="object" value="15"/>
            </properties>
            <point/>
        </object>
        <object id="13" x="864" y="864">
            <properties>
                <property name="link-0" type="object" value="3"/>
                <property name="link-1" type="object" value="12"/>
                <property name="link-2" type="object" value="14"/>
                <property name="link-3" type="object" value="15"/>
            </properties>
            <point/>
        </object>
        <object id="14" x="1376" y="864">
            <properties>
                <property name="link-0" type="object" value="10"/>
                <property name="link-1" type="object" value="13"/>
                <property name="link-2" type="object" value="15"/>
                <property name="link-3" type="object" value="12"/>
            </properties>
            <point/>
        </object>
        <object id="15" x="1888" y="864">
            <properties>
                <property name="link-0" type="object" value="14"/>
                <property name="link-1" type="object" value="7"/>
                <property name="link-2" type="object" value="13"/>
                <property name="link-3" type="object" value="12"/>
            </properties>
            <point/>
        </object>
        <object id="16" x="2016" y="864">
            <properties>
                <property name="link-0" type="object" value="17"/>
                <property name="link-1" type="object" value="8"/>
            </properties>
            <point/>
        </object>
        <object id="17" x="2080" y="864">
            <properties>
                <property name="link-0" type="object" value="16"/>
                <property name="link-1" type="object" value="4"/>
            </properties>
            <point/>
        </object>
    </objectgroup>
 <objectgroup id="90" name="lifts">
  <object id="900" x="96" y="288"><properties><property name="elevator" type="int" value="1"/><property name="stop_index" type="int" value="1"/></properties><point/></object>
  <object id="901" x="2080" y="928"><properties><property name="elevator" type="int" value="4"/><property name="stop_index" type="int" value="1"/></properties><point/></object>
 </objectgroup>
</map>
