<?xml version="1.0" encoding="UTF-8"?>
<map version="1.10" tiledversion="1.11.2" orientation="orthogonal" renderorder="right-down" width="38" height="15" tilewidth="64" tileheight="64" infinite="0" nextlayerid="3" nextobjectid="25">
    <tileset firstgid="1" source="default.tsx"/>
    <layer id="1" name="Tile Layer 1" width="38" height="15">
        <data encoding="csv">
8,11,11,11,11,10,34,34,34,34,34,34,34,34,34,34,34,34,34,34,34,34,34,34,34,34,34,34,34,34,34,34,34,34,34,34,34,34,
12,39,26,1,1,5,11,11,11,10,34,34,34,34,34,34,34,34,34,34,34,34,34,34,34,34,34,34,34,34,34,34,34,34,34,34,34,34,
12,24,1,1,1,12,26,26,26,2,11,9,11,11,11,11,11,11,11,11,11,10,34,34,34,34,34,34,34,34,34,34,34,34,34,34,34,34,
12,1,1,1,1,28,1,1,1,1,1,28,1,1,1,1,1,1,1,1,1,12,34,34,34,34,34,34,34,34,34,34,34,34,34,34,34,34,
12,1,1,1,8,3,11,19,11,10,1,2,10,1,1,14,1,1,14,1,1,5,11,11,11,11,11,11,11,10,34,34,34,34,34,34,34,34,
12,1,1,1,12,1,1,1,1,12,1,33,12,1,1,1,1,1,1,1,1,28,1,1,1,1,1,1,1,5,11,11,11,10,34,34,34,34,
12,1,1,8,4,1,1,1,1,12,1,8,3,11,11,9,11,11,11,9,11,6,19,11,11,11,10,1,1,28,1,1,1,5,11,11,11,10,
12,1,1,12,33,1,1,1,1,12,1,12,1,1,1,12,26,1,1,28,35,12,1,1,1,39,2,11,11,7,1,1,1,28,1,1,39,12,
12,1,8,3,11,11,11,19,11,7,1,12,1,1,1,12,1,1,1,5,11,7,1,1,1,1,1,1,1,28,1,1,1,5,11,11,11,4,
12,1,12,1,1,1,1,1,1,12,1,12,24,1,1,12,1,1,1,12,1,28,1,1,1,1,1,1,35,5,11,11,11,4,34,34,34,34,
12,1,12,1,1,1,1,1,1,12,1,5,11,11,19,3,11,11,19,4,1,5,11,11,11,11,11,11,11,4,34,34,34,34,34,34,34,34,
12,1,12,1,1,1,1,1,1,12,1,28,1,1,1,1,1,1,1,1,1,12,34,34,34,34,34,34,34,34,34,34,34,34,34,34,34,34,
12,1,2,11,11,10,27,39,27,5,11,3,11,11,11,11,11,11,11,11,11,4,34,34,34,34,34,34,34,34,34,34,34,34,34,34,34,34,
12,1,1,1,33,5,11,11,11,4,34,34,34,34,34,34,34,34,34,34,34,34,34,34,34,34,34,34,34,34,34,34,34,34,34,34,34,34,
2,11,11,11,11,4,34,34,34,34,34,34,34,34,34,34,34,34,34,34,34,34,34,34,34,34,34,34,34,34,34,34,34,34,34,34,34,34
</data>
    </layer>
    <objectgroup id="2" name="waypoints">
        <object id="1" x="96" y="224">
            <properties>
                <property name="link-0" type="object" value="2"/>
                <property name="link-1" type="object" value="4"/>
                <property name="link-2" type="object" value="24"/>
            </properties>
            <point/>
        </object>
        <object id="2" x="480" y="224">
            <properties>
                <property name="link-0" type="object" value="1"/>
                <property name="link-1" type="object" value="3"/>
                <property name="link-2" type="object" value="19"/>
            </properties>
            <point/>
        </object>
        <object id="3" x="672" y="224">
            <properties>
                <property name="link-0" type="object" value="2"/>
                <property name="link-1" type="object" value="20"/>
                <property name="link-2" type="object" value="4"/>
            </properties>
            <point/>
        </object>
        <object id="4" x="1056" y="224">
            <properties>
                <property name="link-0" type="object" value="3"/>
                <property name="link-1" type="object" value="5"/>
            </properties>
            <point/>
        </object>
        <object id="5" x="1184" y="352">
            <properties>
                <property name="link-0" type="object" value="4"/>
                <property name="link-1" type="object" value="6"/>
            </properties>
            <point/>
        </object>
        <object id="6" x="1440" y="352">
            <properties>
                <property name="link-0" type="object" value="5"/>
                <property name="link-1" type="object" value="7"/>
                <property name="link-2" type="object" value="18"/>
            </properties>
            <point/>
        </object>
        <object id="7" x="1824" y="352">
            <properties>
                <property name="link-0" type="object" value="6"/>
                <property name="link-1" type="object" value="8"/>
            </properties>
            <point/>
        </object>
        <object id="8" x="1824" y="416">
            <properties>
                <property name="link-0" type="object" value="7"/>
                <property name="link-1" type="object" value="9"/>
            </properties>
            <point/>
        </object>
        <object id="9" x="1952" y="416">
            <properties>
                <property name="link-0" type="object" value="8"/>
                <property name="link-1" type="object" value="12"/>
                <property name="link-2" type="object" value="16"/>
            </properties>
            <point/>
        </object>
        <object id="10" x="1184" y="480">
            <properties>
                <property name="link-0" type="object" value="11"/>
                <property name="link-1" type="object" value="22"/>
            </properties>
            <point/>
        </object>
        <object id="11" x="1312" y="480">
            <properties>
                <property name="link-0" type="object" value="10"/>
            </properties>
            <point/>
        </object>
        <object id="12" x="2016" y="480">
            <properties>
                <property name="link-0" type="object" value="9"/>
                <property name="link-1" type="object" value="16"/>
                <property name="link-2" type="object" value="13"/>
            </properties>
            <point/>
        </object>
        <object id="13" x="2272" y="480">
            <properties>
                <property name="link-0" type="object" value="12"/>
            </properties>
            <point/>
        </object>
        <object id="14" x="928" y="544">
            <properties>
                <property name="link-0" type="object" value="21"/>
            </properties>
            <point/>
        </object>
        <object id="15" x="1504" y="544">
            <properties>
                <property name="link-0" type="object" value="18"/>
                <property name="link-1" type="object" value="16"/>
            </properties>
            <point/>
        </object>
        <object id="16" x="1952" y="544">
            <properties>
                <property name="link-0" type="object" value="15"/>
                <property name="link-1" type="object" value="12"/>
                <property name="link-2" type="object" value="9"/>
            </properties>
            <point/>
        </object>
        <object id="17" x="1312" y="608">
            <properties>
                <property name="link-0" type="object" value="18"/>
                <property name="link-1" type="object" value="23"/>
            </properties>
            <point/>
        </object>
        <object id="18" x="1440" y="608">
            <properties>
                <property name="link-0" type="object" value="6"/>
                <property name="link-1" type="object" value="15"/>
                <property name="link-2" type="object" value="17"/>
            </properties>
            <point/>
        </object>
        <object id="19" x="480" y="736">
            <properties>
                <property name="link-0" type="object" value="2"/>
            </properties>
            <point/>
        </object>
        <object id="20" x="672" y="736">
            <properties>
                <property name="link-0" type="object" value="3"/>
                <property name="link-1" type="object" value="21"/>
            </properties>
            <point/>
        </object>
        <object id="21" x="928" y="736">
            <properties>
                <property name="link-0" type="object" value="22"/>
                <property name="link-1" type="object" value="14"/>
                <property name="link-2" type="object" value="20"/>
            </properties>
            <point/>
        </object>
        <object id="22" x="1184" y="736">
            <properties>
                <property name="link-0" type="object" value="23"/>
                <property name="link-1" type="object" value="21"/>
                <property name="link-2" type="object" value="10"/>
            </properties>
            <point/>
        </object>
        <object id="23" x="1312" y="736">
            <properties>
                <property name="link-0" type="object" value="17"/>
                <property name="link-1" type="object" value="22"/>
            </properties>
            <point/>
        </object>
        <object id="24" x="96" y="864">
            <properties>
                <property name="link-0" type="object" value="1"/>
            </properties>
            <point/>
        </object>
    </objectgroup>
 <objectgroup id="90" name="lifts">
  <object id="900" x="288" y="864"><properties><property name="elevator" type="int" value="3"/><property name="stop_index" type="int" value="0"/></properties><point/></object>
  <object id="901" x="288" y="480"><properties><property name="elevator" type="int" value="4"/><property name="stop_index" type="int" value="3"/></properties><point/></object>
  <object id="902" x="736" y="352"><properties><property name="elevator" type="int" value="6"/><property name="stop_index" type="int" value="3"/></properties><point/></object>
 </objectgroup>
</map>
