<?xml version="1.0" encoding="UTF-8"?>
<map version="1.10" tiledversion="1.11.2" orientation="orthogonal" renderorder="right-down" width="31" height="13" tilewidth="64" tileheight="64" infinite="0" nextlayerid="3" nextobjectid="17">
    <tileset firstgid="1" source="default.tsx"/>
    <layer id="1" name="Tile Layer 1" width="31" height="13">
        <data encoding="csv">
8,11,11,11,11,11,11,10,34,34,34,34,34,34,34,34,34,34,34,34,34,34,34,34,34,34,34,34,34,34,34,
12,1,1,1,1,1,1,5,11,11,11,11,11,11,11,10,34,34,34,34,34,34,34,34,34,34,34,34,34,34,34,
12,1,1,1,1,1,1,12,35,1,1,1,1,1,35,12,34,34,34,34,34,34,34,34,34,34,34,34,34,34,34,
5,11,11,11,9,19,11,4,1,1,1,1,1,1,1,5,11,11,11,11,11,10,34,34,34,34,34,34,34,34,34,
12,1,1,1,28,1,1,33,1,1,1,1,1,1,1,28,1,1,1,1,1,5,11,11,11,10,34,34,34,34,34,
12,1,1,1,12,1,8,11,11,11,11,11,11,11,11,6,19,11,11,11,19,7,1,1,1,2,11,11,11,11,10,
12,1,1,1,12,1,28,1,1,1,1,1,1,1,1,12,1,1,1,1,1,12,1,1,1,1,1,1,1,25,12,
12,1,1,1,2,11,3,10,1,1,1,1,1,1,1,12,1,1,1,1,1,28,1,1,1,8,11,11,11,11,4,
12,1,1,1,1,35,26,12,1,1,1,1,1,1,1,12,1,1,1,1,1,5,11,11,11,4,34,34,34,34,34,
12,24,1,1,1,1,1,12,1,1,1,1,1,1,1,5,11,11,11,11,11,4,34,34,34,34,34,34,34,34,34,
12,1,1,1,1,1,1,12,1,1,1,1,1,1,1,12,34,34,34,34,34,34,34,34,34,34,34,34,34,34,34,
12,14,1,1,1,1,1,5,11,11,11,11,11,11,11,4,34,34,34,34,34,34,34,34,34,34,34,34,34,34,34,
2,11,11,11,11,11,11,4,34,34,34,34,34,34,34,34,34,34,34,34,34,34,34,34,34,34,34,34,34,34,34
</data>
    </layer>
    <objectgroup id="2" name="waypoints">
        <object id="1" x="160" y="288">
            <properties>
                <property name="link-0" type="object" value="2"/>
                <property name="link-1" type="object" value="13"/>
            </properties>
            <point/>
        </object>
        <object id="2" x="352" y="288">
            <properties>
                <property name="link-0" type="object" value="1"/>
                <property name="link-1" type="object" value="3"/>
                <property name="link-2" type="object" value="4"/>
                <property name="link-3" type="object" value="5"/>
            </properties>
            <point/>
        </object>
        <object id="3" x="1056" y="288">
            <properties>
                <property name="link-0" type="object" value="10"/>
                <property name="link-1" type="object" value="4"/>
                <property name="link-2" type="object" value="2"/>
            </properties>
            <point/>
        </object>
        <object id="4" x="1312" y="288">
            <properties>
                <property name="link-0" type="object" value="3"/>
                <property name="link-1" type="object" value="11"/>
            </properties>
            <point/>
        </object>
        <object id="5" x="352" y="416">
            <properties>
                <property name="link-0" type="object" value="2"/>
                <property name="link-1" type="object" value="6"/>
                <property name="link-2" type="object" value="7"/>
            </properties>
            <point/>
        </object>
        <object id="6" x="672" y="416">
            <properties>
                <property name="link-0" type="object" value="5"/>
                <property name="link-1" type="object" value="7"/>
                <property name="link-2" type="object" value="15"/>
            </properties>
            <point/>
        </object>
        <object id="7" x="928" y="416">
            <properties>
                <property name="link-0" type="object" value="6"/>
                <property name="link-1" type="object" value="16"/>
            </properties>
            <point/>
        </object>
        <object id="8" x="1504" y="416">
            <properties>
                <property name="link-0" type="object" value="12"/>
                <property name="link-1" type="object" value="9"/>
            </properties>
            <point/>
        </object>
        <object id="9" x="1824" y="416">
            <properties>
                <property name="link-0" type="object" value="8"/>
            </properties>
            <point/>
        </object>
        <object id="10" x="1056" y="480">
            <properties>
                <property name="link-0" type="object" value="3"/>
                <property name="link-1" type="object" value="11"/>
            </properties>
            <point/>
        </object>
        <object id="11" x="1312" y="480">
            <properties>
                <property name="link-0" type="object" value="10"/>
                <property name="link-1" type="object" value="4"/>
                <property name="link-2" type="object" value="12"/>
            </properties>
            <point/>
        </object>
        <object id="12" x="1440" y="480">
            <properties>
                <property name="link-0" type="object" value="11"/>
                <property name="link-1" type="object" value="8"/>
            </properties>
            <point/>
        </object>
        <object id="13" x="160" y="608">
            <properties>
                <property name="link-0" type="object" value="1"/>
                <property name="link-1" type="object" value="14"/>
            </properties>
            <point/>
        </object>
        <object id="14" x="416" y="608">
            <properties>
                <property name="link-0" type="object" value="13"/>
            </properties>
            <point/>
        </object>
        <object id="15" x="672" y="672">
            <properties>
                <property name="link-0" type="object" value="6"/>
                <property name="link-1" type="object" value="16"/>
            </properties>
            <point/>
        </object>
        <object id="16" x="928" y="672">
            <properties>
                <property name="link-0" type="object" value="15"/>
                <property name="link-1" type="object" value="7"/>
            </properties>
            <point/>
        </object>
    </objectgroup>
</map>
