<?xml version="1.0" encoding="UTF-8"?>
<map version="1.10" tiledversion="1.11.2" orientation="orthogonal" renderorder="right-down" width="20" height="8" tilewidth="64" tileheight="64" infinite="0" nextlayerid="3" nextobjectid="6">
    <tileset firstgid="1" source="default.tsx"/>
    <layer id="1" name="Tile Layer 1" width="20" height="8">
        <data encoding="csv">
8,11,11,11,11,10,34,34,34,34,34,34,34,34,34,34,34,34,34,34,
12,33,1,1,1,12,34,34,34,34,34,34,34,34,34,34,34,34,34,34,
2,11,11,11,11,4,34,34,34,34,34,34,34,34,34,34,34,34,34,34,
34,34,34,34,34,34,34,34,34,34,8,11,11,11,11,10,34,34,34,34,
34,34,34,34,34,34,34,34,34,34,12,39,1,1,1,2,11,11,11,10,
34,34,34,34,34,34,34,34,34,34,12,24,1,1,1,1,1,1,33,12,
34,34,34,34,34,34,34,34,34,34,12,1,1,1,1,8,11,11,11,4,
34,34,34,34,34,34,34,34,34,34,2,11,11,11,11,4,34,34,34,34
</data>
    </layer>
    <objectgroup id="2" name="waypoints">
        <object id="1" x="864" y="288">
            <properties>
                <property name="link-0" type="object" value="3"/>
                <property name="link-1" type="object" value="2"/>
            </properties>
            <point/>
        </object>
        <object id="2" x="800" y="352">
            <properties>
                <property name="link-0" type="object" value="1"/>
                <property name="link-1" type="object" value="5"/>
            </properties>
            <point/>
        </object>
        <object id="3" x="928" y="352">
            <properties>
                <property name="link-0" type="object" value="1"/>
                <property name="link-1" type="object" value="5"/>
                <property name="link-2" type="object" value="4"/>
            </properties>
            <point/>
        </object>
        <object id="4" x="1120" y="352">
            <properties>
                <property name="link-0" type="object" value="3"/>
            </properties>
            <point/>
        </object>
        <object id="5" x="864" y="416">
            <properties>
                <property name="link-0" type="object" value="2"/>
                <property name="link-1" type="object" value="3"/>
            </properties>
            <point/>
        </object>
    </objectgroup>
</map>
