<?xml version="1.0" encoding="UTF-8"?>
<map version="1.10" tiledversion="1.11.2" orientation="orthogonal" renderorder="right-down" width="18" height="11" tilewidth="64" tileheight="64" infinite="0" nextlayerid="3" nextobjectid="9">
    <tileset firstgid="1" source="default.tsx"/>
    <layer id="1" name="Tile Layer 1" width="18" height="11">
        <data encoding="csv">
8,11,11,11,11,11,11,10,34,34,34,34,34,34,34,34,34,34,
12,1,1,1,1,1,25,5,11,11,11,11,11,10,34,34,34,34,
12,33,1,1,1,1,8,4,35,1,1,1,35,12,34,34,34,34,
12,1,1,1,1,1,28,33,1,1,1,1,1,5,11,11,11,10,
5,19,11,11,11,11,3,10,1,1,1,1,1,12,1,1,35,12,
12,1,1,1,1,1,1,12,1,1,1,1,1,28,1,1,1,12,
12,1,1,1,1,1,1,12,1,1,1,1,1,12,18,1,1,12,
12,1,1,1,1,1,1,12,1,1,1,1,1,5,11,11,11,4,
12,1,1,1,1,1,1,12,35,1,1,1,35,12,34,34,34,34,
12,14,1,1,27,1,1,5,11,11,11,11,11,4,34,34,34,34,
2,11,11,11,11,11,11,4,34,34,34,34,34,34,34,34,34,34
</data>
    </layer>
    <objectgroup id="2" name="waypoints">
        <object id="1" x="352" y="96">
            <properties>
                <property name="link-0" type="object" value="3"/>
            </properties>
            <point/>
        </object>
        <object id="2" x="96" y="224">
            <properties>
                <property name="link-0" type="object" value="7"/>
                <property name="link-1" type="object" value="3"/>
            </properties>
            <point/>
        </object>
        <object id="3" x="224" y="224">
            <properties>
                <property name="link-0" type="object" value="2"/>
                <property name="link-1" type="object" value="4"/>
                <property name="link-2" type="object" value="1"/>
            </properties>
            <point/>
        </object>
        <object id="4" x="544" y="224">
            <properties>
                <property name="link-0" type="object" value="3"/>
                <property name="link-1" type="object" value="5"/>
            </properties>
            <point/>
        </object>
        <object id="5" x="544" y="352">
            <properties>
                <property name="link-0" type="object" value="4"/>
                <property name="link-1" type="object" value="6"/>
            </properties>
            <point/>
        </object>
        <object id="6" x="1056" y="352">
            <properties>
                <property name="link-0" type="object" value="5"/>
            </properties>
            <point/>
        </object>
        <object id="7" x="96" y="544">
            <properties>
                <property name="link-0" type="object" value="2"/>
                <property name="link-1" type="object" value="8"/>
            </properties>
            <point/>
        </object>
        <object id="8" x="288" y="544">
            <properties>
                <property name="link-0" type="object" value="7"/>
            </properties>
            <point/>
        </object>
    </objectgroup>
</map>
