<?xml version="1.0" encoding="UTF-8"?>
<map version="1.10" tiledversion="1.11.2" orientation="orthogonal" renderorder="right-down" width="34" height="16" tilewidth="64" tileheight="64" infinite="0" nextlayerid="3" nextobjectid="21">
    <tileset firstgid="1" source="default.tsx"/>
    <layer id="1" name="Tile Layer 1" width="34" height="16">
        <data encoding="csv">
8,11,11,11,11,11,11,11,11,11,11,11,11,11,9,11,11,11,11,11,11,11,11,11,11,11,11,11,9,11,11,11,11,10,
12,39,1,1,1,1,1,1,1,1,1,1,1,1,12,1,1,1,1,1,1,1,1,1,1,1,1,1,12,1,1,1,15,12,
12,24,1,1,1,1,1,1,1,1,1,1,1,1,12,1,1,1,1,1,1,1,1,1,1,1,1,1,12,1,16,16,16,12,
5,11,10,1,1,1,1,1,1,1,1,1,1,1,28,1,1,8,11,11,11,11,11,11,11,10,1,1,12,1,1,1,1,12,
12,33,28,1,1,1,1,1,1,1,1,1,1,1,28,1,1,12,39,35,1,35,1,35,39,12,1,1,12,1,1,1,1,12,
5,11,3,19,19,10,1,1,1,1,1,1,1,1,12,1,1,28,1,1,1,1,1,1,1,28,1,1,28,1,1,1,1,12,
12,1,1,1,1,12,1,1,1,1,1,1,1,1,12,1,1,28,1,1,1,1,1,1,1,28,1,1,12,1,1,1,1,12,
12,1,1,1,1,2,11,11,11,11,19,19,11,11,6,19,19,3,11,11,11,11,11,11,11,3,11,11,6,11,11,11,19,7,
12,1,1,1,1,1,1,1,1,1,1,1,1,1,12,1,1,1,1,15,15,15,16,1,1,1,1,1,12,1,1,1,1,12,
12,1,1,1,1,1,1,1,1,1,1,1,1,1,12,1,1,1,1,1,1,1,1,1,1,1,1,1,28,1,1,1,1,12,
12,1,1,1,1,1,1,1,1,1,1,1,1,1,28,1,1,1,1,1,1,1,1,1,1,1,1,1,12,1,1,1,1,12,
12,1,1,1,1,39,1,1,1,35,1,1,1,1,28,1,1,1,1,39,1,1,1,35,1,1,1,1,12,1,1,1,1,12,
12,1,1,1,1,14,1,1,1,14,1,1,1,1,12,1,1,1,1,14,1,1,1,14,1,1,1,15,12,1,1,1,1,12,
12,1,1,1,1,1,1,1,1,1,1,1,1,1,12,1,1,1,1,1,1,1,1,1,1,1,16,15,12,1,1,1,1,12,
12,1,1,1,1,1,1,1,1,1,1,1,1,1,12,1,1,1,1,1,1,1,1,1,1,1,16,16,12,1,27,1,33,12,
2,11,11,11,11,11,11,11,11,11,11,11,11,11,3,11,11,11,11,11,11,11,11,11,11,11,11,11,3,11,11,11,11,4
</data>
    </layer>
    <objectgroup id="2" name="waypoints">
        <object id="1" x="992" y="96">
            <properties>
                <property name="link-0" type="object" value="5"/>
                <property name="link-1" type="object" value="2"/>
            </properties>
            <point/>
        </object>
        <object id="2" x="1760" y="96">
            <properties>
                <property name="link-0" type="object" value="7"/>
                <property name="link-1" type="object" value="1"/>
            </properties>
            <point/>
        </object>
        <object id="3" x="288" y="288">
            <properties>
                <property name="link-0" type="object" value="11"/>
                <property name="link-1" type="object" value="4"/>
                <property name="link-2" type="object" value="5"/>
                <property name="link-3" type="object" value="17"/>
            </properties>
            <point/>
        </object>
        <object id="4" x="672" y="288">
            <properties>
                <property name="link-0" type="object" value="3"/>
                <property name="link-1" type="object" value="5"/>
            </properties>
            <point/>
        </object>
        <object id="5" x="992" y="288">
            <properties>
                <property name="link-0" type="object" value="6"/>
                <property name="link-1" type="object" value="4"/>
                <property name="link-2" type="object" value="3"/>
                <property name="link-3" type="object" value="1"/>
            </properties>
            <point/>
        </object>
        <object id="6" x="1056" y="352">
            <properties>
                <property name="link-0" type="object" value="5"/>
                <property name="link-1" type="object" value="7"/>
                <property name="link-2" type="object" value="8"/>
            </properties>
            <point/>
        </object>
        <object id="7" x="1760" y="352">
            <properties>
                <property name="link-0" type="object" value="6"/>
                <property name="link-1" type="object" value="8"/>
            </properties>
            <point/>
        </object>
        <object id="8" x="2080" y="352">
            <properties>
                <property name="link-0" type="object" value="10"/>
                <property name="link-1" type="object" value="7"/>
                <property name="link-2" type="object" value="6"/>
            </properties>
            <point/>
        </object>
        <object id="9" x="1696" y="608">
            <properties>
                <property name="link-0" type="object" value="16"/>
                <property name="link-1" type="object" value="10"/>
            </properties>
            <point/>
        </object>
        <object id="10" x="2080" y="608">
            <properties>
                <property name="link-0" type="object" value="9"/>
                <property name="link-1" type="object" value="8"/>
            </properties>
            <point/>
        </object>
        <object id="11" x="288" y="672">
            <properties>
                <property name="link-0" type="object" value="12"/>
                <property name="link-1" type="object" value="17"/>
                <property name="link-2" type="object" value="3"/>
                <property name="link-3" type="object" value="13"/>
            </properties>
            <point/>
        </object>
        <object id="12" x="672" y="672">
            <properties>
                <property name="link-0" type="object" value="13"/>
                <property name="link-1" type="object" value="18"/>
                <property name="link-2" type="object" value="11"/>
                <property name="link-3" type="object" value="14"/>
            </properties>
            <point/>
        </object>
        <object id="13" x="1056" y="672">
            <properties>
                <property name="link-0" type="object" value="14"/>
                <property name="link-1" type="object" value="19"/>
                <property name="link-2" type="object" value="12"/>
            </properties>
            <point/>
        </object>
        <object id="14" x="1184" y="672">
            <properties>
                <property name="link-0" type="object" value="15"/>
                <property name="link-1" type="object" value="13"/>
            </properties>
            <point/>
        </object>
        <object id="15" x="1568" y="672">
            <properties>
                <property name="link-0" type="object" value="16"/>
                <property name="link-1" type="object" value="20"/>
                <property name="link-2" type="object" value="14"/>
                <property name="link-3" type="object" value="13"/>
            </properties>
            <point/>
        </object>
        <object id="16" x="1760" y="672">
            <properties>
                <property name="link-0" type="object" value="9"/>
                <property name="link-1" type="object" value="15"/>
                <property name="link-2" type="object" value="14"/>
                <property name="link-3" type="object" value="13"/>
            </properties>
            <point/>
        </object>
        <object id="17" x="288" y="928">
            <properties>
                <property name="link-0" type="object" value="11"/>
                <property name="link-1" type="object" value="18"/>
                <property name="link-2" type="object" value="3"/>
            </properties>
            <point/>
        </object>
        <object id="18" x="672" y="928">
            <properties>
                <property name="link-0" type="object" value="12"/>
                <property name="link-1" type="object" value="17"/>
            </properties>
            <point/>
        </object>
        <object id="19" x="1056" y="928">
            <properties>
                <property name="link-0" type="object" value="13"/>
                <property name="link-1" type="object" value="20"/>
            </properties>
            <point/>
        </object>
        <object id="20" x="1568" y="928">
            <properties>
                <property name="link-0" type="object" value="15"/>
                <property name="link-1" type="object" value="19"/>
            </properties>
            <point/>
        </object>
    </objectgroup>
</map>
