<?xml version="1.0" encoding="UTF-8"?>
<map version="1.10" tiledversion="1.11.2" orientation="orthogonal" renderorder="right-down" width="38" height="15" tilewidth="64" tileheight="64" infinite="0" nextlayerid="3" nextobjectid="20">
    <tileset firstgid="1" source="default.tsx"/>
    <layer id="1" name="Tile Layer 1" width="38" height="15">
        <data encoding="csv">
8,11,11,11,11,11,11,11,11,11,11,11,11,11,11,10,34,34,34,34,34,34,34,34,34,34,34,34,34,34,34,34,34,34,34,34,34,34,
12,1,1,1,1,1,1,1,1,1,1,1,1,1,1,12,34,34,34,34,34,34,34,34,34,34,34,34,34,34,34,34,34,34,34,34,34,34,
12,1,1,1,14,1,1,1,1,14,1,1,1,1,1,5,11,11,9,11,9,11,11,11,11,11,11,10,34,34,34,34,34,34,34,34,34,34,
12,1,1,1,1,1,1,1,1,1,1,1,1,1,1,12,1,1,28,1,28,1,1,1,1,1,26,12,34,34,34,34,34,34,34,34,34,34,
12,1,1,1,8,11,11,11,11,10,1,1,1,1,1,12,1,1,5,11,7,1,1,1,1,1,1,12,34,34,34,34,34,34,34,34,34,34,
12,1,1,1,12,15,16,1,16,12,1,1,1,1,1,28,1,1,12,33,12,1,1,1,1,1,1,5,11,11,11,11,11,10,34,34,34,34,
12,1,1,1,12,1,1,1,1,5,19,11,11,11,11,3,11,11,4,1,2,11,11,11,11,11,11,4,1,1,1,1,1,5,11,11,11,10,
12,1,39,1,12,1,1,1,1,28,1,1,33,1,1,1,1,1,1,1,1,1,1,1,1,1,1,33,1,1,1,1,1,28,1,1,35,12,
12,1,1,1,12,1,1,1,1,5,19,11,11,11,11,9,11,11,11,11,11,11,11,11,11,11,11,10,1,1,1,1,1,5,11,11,11,4,
12,1,1,1,12,1,1,1,1,12,1,1,1,1,1,28,18,1,1,1,1,1,1,1,1,1,1,5,11,11,11,11,11,4,34,34,34,34,
12,1,1,1,2,11,11,11,11,4,1,1,1,1,1,12,1,1,1,1,1,1,1,1,1,1,1,12,34,34,34,34,34,34,34,34,34,34,
12,1,1,1,1,1,1,1,1,1,1,1,1,1,1,12,27,1,1,1,1,1,1,1,1,1,1,12,34,34,34,34,34,34,34,34,34,34,
12,1,1,1,14,1,1,1,1,14,1,1,1,1,1,5,11,11,11,11,11,11,11,11,11,11,11,4,34,34,34,34,34,34,34,34,34,34,
12,1,1,1,1,1,1,1,1,1,1,1,1,1,1,12,34,34,34,34,34,34,34,34,34,34,34,34,34,34,34,34,34,34,34,34,34,34,
2,11,11,11,11,11,11,11,11,11,11,11,11,11,11,4,34,34,34,34,34,34,34,34,34,34,34,34,34,34,34,34,34,34,34,34,34,34
</data>
    </layer>
    <objectgroup id="2" name="waypoints">
        <object id="1" x="96" y="96">
            <properties>
                <property name="link-0" type="object" value="2"/>
                <property name="link-1" type="object" value="18"/>
                <property name="link-2" type="object" value="3"/>
            </properties>
            <point/>
        </object>
        <object id="2" x="800" y="96">
            <properties>
                <property name="link-0" type="object" value="1"/>
                <property name="link-1" type="object" value="4"/>
            </properties>
            <point/>
        </object>
        <object id="3" x="224" y="224">
            <properties>
                <property name="link-0" type="object" value="4"/>
                <property name="link-1" type="object" value="16"/>
                <property name="link-2" type="object" value="1"/>
            </properties>
            <point/>
        </object>
        <object id="4" x="800" y="224">
            <properties>
                <property name="link-0" type="object" value="2"/>
                <property name="link-1" type="object" value="7"/>
            </properties>
            <point/>
        </object>
        <object id="5" x="1056" y="224">
            <properties>
                <property name="link-0" type="object" value="8"/>
                <property name="link-1" type="object" value="6"/>
            </properties>
            <point/>
        </object>
        <object id="6" x="1632" y="224">
            <properties>
                <property name="link-0" type="object" value="5"/>
            </properties>
            <point/>
        </object>
        <object id="7" x="672" y="352">
            <properties>
                <property name="link-0" type="object" value="8"/>
                <property name="link-1" type="object" value="10"/>
                <property name="link-2" type="object" value="4"/>
            </properties>
            <point/>
        </object>
        <object id="8" x="1056" y="352">
            <properties>
                <property name="link-0" type="object" value="7"/>
                <property name="link-1" type="object" value="5"/>
            </properties>
            <point/>
        </object>
        <object id="9" x="544" y="480">
            <properties>
                <property name="link-0" type="object" value="10"/>
            </properties>
            <point/>
        </object>
        <object id="10" x="672" y="480">
            <properties>
                <property name="link-0" type="object" value="9"/>
                <property name="link-1" type="object" value="12"/>
                <property name="link-2" type="object" value="7"/>
                <property name="link-3" type="object" value="11"/>
            </properties>
            <point/>
        </object>
        <object id="11" x="2336" y="480">
            <properties>
                <property name="link-0" type="object" value="10"/>
            </properties>
            <point/>
        </object>
        <object id="12" x="672" y="608">
            <properties>
                <property name="link-0" type="object" value="14"/>
                <property name="link-1" type="object" value="10"/>
                <property name="link-2" type="object" value="13"/>
            </properties>
            <point/>
        </object>
        <object id="13" x="1248" y="608">
            <properties>
                <property name="link-0" type="object" value="15"/>
                <property name="link-1" type="object" value="12"/>
            </properties>
            <point/>
        </object>
        <object id="14" x="672" y="672">
            <properties>
                <property name="link-0" type="object" value="12"/>
                <property name="link-1" type="object" value="17"/>
            </properties>
            <point/>
        </object>
        <object id="15" x="1376" y="672">
            <properties>
                <property name="link-0" type="object" value="13"/>
            </properties>
            <point/>
        </object>
        <object id="16" x="224" y="736">
            <properties>
                <property name="link-0" type="object" value="3"/>
                <property name="link-1" type="object" value="18"/>
                <property name="link-2" type="object" value="17"/>
            </properties>
            <point/>
        </object>
        <object id="17" x="736" y="736">
            <properties>
                <property name="link-0" type="object" value="19"/>
                <property name="link-1" type="object" value="16"/>
                <property name="link-2" type="object" value="14"/>
            </properties>
            <point/>
        </object>
        <object id="18" x="96" y="864">
            <properties>
                <property name="link-0" type="object" value="19"/>
                <property name="link-1" type="object" value="1"/>
                <property name="link-2" type="object" value="16"/>
            </properties>
            <point/>
        </object>
        <object id="19" x="736" y="864">
            <properties>
                <property name="link-0" type="object" value="18"/>
                <property name="link-1" type="object" value="17"/>
            </properties>
            <point/>
        </object>
    </objectgroup>
</map>
