<?xml version="1.0" encoding="UTF-8"?>
<map version="1.10" tiledversion="1.11.2" orientation="orthogonal" renderorder="right-down" width="38" height="16" tilewidth="64" tileheight="64" infinite="0" nextlayerid="3" nextobjectid="19">
    <tileset firstgid="1" source="default.tsx"/>
    <layer id="1" name="Tile Layer 1" width="38" height="16">
        <data encoding="csv">
34,34,34,34,34,34,34,34,8,11,11,11,11,11,11,11,11,11,11,11,11,11,11,9,11,10,34,34,34,34,34,34,34,34,34,34,34,34,
8,11,11,11,11,11,11,11,7,1,1,1,1,1,1,1,1,1,1,1,1,1,1,28,1,12,34,34,34,34,34,34,34,34,34,34,34,34,
12,1,1,1,16,1,1,39,12,1,1,1,14,1,8,11,11,11,9,19,11,11,11,7,1,12,34,34,34,34,34,34,34,34,34,34,34,34,
12,1,1,1,1,1,1,1,28,1,1,1,1,1,28,1,1,1,12,1,1,1,1,12,1,12,34,34,34,34,34,34,34,34,34,34,34,34,
12,27,1,1,1,1,1,1,12,1,1,1,1,1,12,1,1,1,12,1,1,1,1,12,1,12,34,34,34,34,34,34,34,34,34,34,34,34,
2,11,11,11,11,11,11,11,3,11,11,11,10,1,12,1,1,35,12,1,1,1,25,12,1,12,34,34,34,34,34,34,34,34,34,34,34,34,
34,34,34,34,34,34,34,34,34,34,34,34,5,19,3,11,9,11,7,1,1,1,1,12,1,12,34,34,34,34,34,34,34,34,34,34,34,34,
34,34,34,34,34,34,34,34,34,34,34,34,12,1,1,35,12,33,12,1,1,1,39,12,1,12,34,34,34,34,34,34,8,11,11,10,34,34,
34,34,34,34,34,34,34,34,34,34,34,34,12,1,1,1,12,1,5,11,11,11,11,3,19,7,34,34,34,34,34,34,12,33,1,12,34,34,
8,11,11,11,11,11,11,11,11,11,11,11,7,35,1,39,12,1,28,1,1,1,1,1,1,12,34,34,34,34,34,34,12,1,1,5,11,10,
12,1,1,1,1,1,1,1,1,1,1,1,5,11,11,11,3,19,6,19,11,11,11,11,11,7,34,34,34,34,34,34,12,1,1,12,35,12,
12,1,1,1,1,1,1,1,1,1,1,1,28,1,1,1,1,1,12,1,1,1,1,1,1,12,34,34,34,34,34,34,12,1,1,28,1,12,
12,1,1,1,1,1,1,1,1,1,1,1,12,1,14,1,14,1,12,1,1,1,1,1,1,12,34,34,34,34,34,34,12,1,1,12,35,12,
2,11,11,11,11,11,11,11,10,39,1,27,12,1,1,1,1,1,12,1,1,1,1,1,25,12,34,34,34,34,34,34,12,1,1,5,11,4,
34,34,34,34,34,34,34,34,2,11,11,11,3,11,11,11,11,11,3,11,11,11,11,11,11,4,34,34,34,34,34,34,12,17,39,12,34,34,
34,34,34,34,34,34,34,34,34,34,34,34,34,34,34,34,34,34,34,34,34,34,34,34,34,34,34,34,34,34,34,34,2,11,11,4,34,34
</data>
    </layer>
    <objectgroup id="2" name="waypoints">
        <object id="1" x="736" y="96">
            <properties>
                <property name="link-0" type="object" value="6"/>
                <property name="link-1" type="object" value="2"/>
                <property name="link-2" type="object" value="3"/>
                <property name="link-3" type="object" value="4"/>
            </properties>
            <point/>
        </object>
        <object id="2" x="864" y="96">
            <properties>
                <property name="link-0" type="object" value="7"/>
                <property name="link-1" type="object" value="1"/>
                <property name="link-2" type="object" value="3"/>
                <property name="link-3" type="object" value="4"/>
            </properties>
            <point/>
        </object>
        <object id="3" x="1248" y="96">
            <properties>
                <property name="link-0" type="object" value="9"/>
                <property name="link-1" type="object" value="4"/>
                <property name="link-2" type="object" value="2"/>
                <property name="link-3" type="object" value="1"/>
            </properties>
            <point/>
        </object>
        <object id="4" x="1568" y="96">
            <properties>
                <property name="link-0" type="object" value="13"/>
                <property name="link-1" type="object" value="3"/>
                <property name="link-2" type="object" value="2"/>
                <property name="link-3" type="object" value="1"/>
            </properties>
            <point/>
        </object>
        <object id="5" x="96" y="224">
            <properties>
                <property name="link-0" type="object" value="6"/>
                <property name="link-1" type="object" value="7"/>
                <property name="link-2" type="object" value="8"/>
            </properties>
            <point/>
        </object>
        <object id="6" x="608" y="224">
            <properties>
                <property name="link-0" type="object" value="5"/>
                <property name="link-1" type="object" value="7"/>
                <property name="link-2" type="object" value="1"/>
                <property name="link-3" type="object" value="8"/>
            </properties>
            <point/>
        </object>
        <object id="7" x="864" y="224">
            <properties>
                <property name="link-0" type="object" value="2"/>
                <property name="link-1" type="object" value="8"/>
                <property name="link-2" type="object" value="6"/>
                <property name="link-3" type="object" value="10"/>
            </properties>
            <point/>
        </object>
        <object id="8" x="1056" y="224">
            <properties>
                <property name="link-0" type="object" value="7"/>
                <property name="link-1" type="object" value="6"/>
                <property name="link-2" type="object" value="5"/>
            </properties>
            <point/>
        </object>
        <object id="9" x="1248" y="480">
            <properties>
                <property name="link-0" type="object" value="3"/>
            </properties>
            <point/>
        </object>
        <object id="10" x="864" y="544">
            <properties>
                <property name="link-0" type="object" value="7"/>
                <property name="link-1" type="object" value="2"/>
            </properties>
            <point/>
        </object>
        <object id="11" x="1120" y="608">
            <properties>
                <property name="link-0" type="object" value="16"/>
                <property name="link-1" type="object" value="12"/>
                <property name="link-2" type="object" value="13"/>
            </properties>
            <point/>
        </object>
        <object id="12" x="1248" y="608">
            <properties>
                <property name="link-0" type="object" value="11"/>
                <property name="link-1" type="object" value="13"/>
            </properties>
            <point/>
        </object>
        <object id="13" x="1568" y="608">
            <properties>
                <property name="link-0" type="object" value="12"/>
                <property name="link-1" type="object" value="11"/>
                <property name="link-2" type="object" value="4"/>
            </properties>
            <point/>
        </object>
        <object id="14" x="2144" y="608">
            <properties>
                <property name="link-0" type="object" value="17"/>
            </properties>
            <point/>
        </object>
        <object id="15" x="736" y="736">
            <properties>
                <property name="link-0" type="object" value="16"/>
            </properties>
            <point/>
        </object>
        <object id="16" x="1120" y="736">
            <properties>
                <property name="link-0" type="object" value="15"/>
                <property name="link-1" type="object" value="11"/>
            </properties>
            <point/>
        </object>
        <object id="17" x="2144" y="736">
            <properties>
                <property name="link-0" type="object" value="18"/>
                <property name="link-1" type="object" value="14"/>
            </properties>
            <point/>
        </object>
        <object id="18" x="2336" y="736">
            <properties>
                <property name="link-0" type="object" value="17"/>
            </properties>
            <point/>
        </object>
    </objectgroup>
 <objectgroup id="90" name="lifts">
  <object id="900" x="1120" y="480"><properties><property name="elevator" type="int" value="0"/><property name="stop_index" type="int" value="0"/></properties><point/></object>
  <object id="901" x="2144" y="544"><properties><property name="elevator" type="int" value="5"/><property name="stop_index" type="int" value="0"/></properties><point/></object>
 </objectgroup>
</map>
