<?xml version="1.0" encoding="UTF-8"?>
<map version="1.10" tiledversion="1.11.2" orientation="orthogonal" renderorder="right-down" width="32" height="13" tilewidth="64" tileheight="64" infinite="0" nextlayerid="3" nextobjectid="15">
    <tileset firstgid="1" source="default.tsx"/>
    <layer id="1" name="Tile Layer 1" width="32" height="13">
        <data encoding="csv">
8,11,11,11,11,11,11,10,34,34,34,34,34,34,34,34,34,34,34,34,34,34,34,34,34,34,34,34,34,34,34,34,
12,1,1,1,1,1,1,5,11,11,11,11,11,11,11,11,11,10,34,34,34,34,34,34,34,34,34,34,34,34,34,34,
12,1,1,1,1,1,1,12,35,1,1,1,1,1,1,1,35,12,34,34,34,34,34,34,34,34,34,34,34,34,34,34,
5,11,11,11,9,19,11,4,1,1,1,1,1,1,1,1,1,5,11,11,11,11,11,10,34,34,34,34,34,34,34,34,
12,1,1,1,28,1,1,33,1,1,1,1,1,1,1,1,1,12,1,1,1,1,35,5,11,11,11,10,34,34,34,34,
12,24,1,1,12,1,8,11,11,11,11,11,11,11,11,10,1,12,1,1,1,1,1,12,1,1,1,5,11,11,11,10,
12,1,1,1,12,1,12,35,1,1,1,1,1,1,1,12,1,28,1,1,1,1,1,28,1,1,1,28,1,1,25,12,
12,1,1,1,12,1,12,17,1,1,1,1,1,1,25,12,1,12,1,1,1,1,1,12,1,1,1,5,11,11,11,4,
5,11,11,11,7,1,2,10,1,1,1,1,1,1,1,12,1,12,1,1,1,1,27,5,11,11,11,4,34,34,34,34,
12,1,1,1,28,1,1,2,11,11,19,11,11,11,11,4,1,5,11,11,11,11,11,4,34,34,34,34,34,34,34,34,
12,1,1,1,2,10,1,1,1,1,1,1,1,1,1,1,1,12,34,34,34,34,34,34,34,34,34,34,34,34,34,34,
12,1,1,1,1,12,39,8,11,11,11,11,11,11,11,11,11,4,34,34,34,34,34,34,34,34,34,34,34,34,34,34,
2,11,11,11,11,3,11,4,34,34,34,34,34,34,34,34,34,34,34,34,34,34,34,34,34,34,34,34,34,34,34,34
</data>
    </layer>
    <objectgroup id="2" name="waypoints">
        <object id="1" x="352" y="96">
            <properties>
                <property name="link-0" type="object" value="3"/>
            </properties>
            <point/>
        </object>
        <object id="2" x="160" y="288">
            <properties>
                <property name="link-0" type="object" value="3"/>
            </properties>
            <point/>
        </object>
        <object id="3" x="352" y="288">
            <properties>
                <property name="link-0" type="object" value="1"/>
                <property name="link-1" type="object" value="2"/>
                <property name="link-2" type="object" value="4"/>
                <property name="link-3" type="object" value="11"/>
            </properties>
            <point/>
        </object>
        <object id="4" x="1056" y="288">
            <properties>
                <property name="link-0" type="object" value="6"/>
                <property name="link-1" type="object" value="3"/>
                <property name="link-2" type="object" value="14"/>
            </properties>
            <point/>
        </object>
        <object id="5" x="672" y="416">
            <properties>
                <property name="link-0" type="object" value="13"/>
            </properties>
            <point/>
        </object>
        <object id="6" x="1056" y="416">
            <properties>
                <property name="link-0" type="object" value="4"/>
                <property name="link-1" type="object" value="14"/>
                <property name="link-2" type="object" value="7"/>
            </properties>
            <point/>
        </object>
        <object id="7" x="1440" y="416">
            <properties>
                <property name="link-0" type="object" value="9"/>
                <property name="link-1" type="object" value="6"/>
                <property name="link-2" type="object" value="8"/>
            </properties>
            <point/>
        </object>
        <object id="8" x="1888" y="416">
            <properties>
                <property name="link-0" type="object" value="7"/>
            </properties>
            <point/>
        </object>
        <object id="9" x="1440" y="480">
            <properties>
                <property name="link-0" type="object" value="7"/>
            </properties>
            <point/>
        </object>
        <object id="10" x="96" y="608">
            <properties>
                <property name="link-0" type="object" value="11"/>
            </properties>
            <point/>
        </object>
        <object id="11" x="352" y="608">
            <properties>
                <property name="link-0" type="object" value="3"/>
                <property name="link-1" type="object" value="12"/>
                <property name="link-2" type="object" value="10"/>
            </properties>
            <point/>
        </object>
        <object id="12" x="416" y="672">
            <properties>
                <property name="link-0" type="object" value="11"/>
                <property name="link-1" type="object" value="13"/>
            </properties>
            <point/>
        </object>
        <object id="13" x="672" y="672">
            <properties>
                <property name="link-0" type="object" value="5"/>
                <property name="link-1" type="object" value="12"/>
                <property name="link-2" type="object" value="14"/>
            </properties>
            <point/>
        </object>
        <object id="14" x="1056" y="672">
            <properties>
                <property name="link-0" type="object" value="13"/>
                <property name="link-1" type="object" value="6"/>
            </properties>
            <point/>
        </object>
    </objectgroup>
</map>
