<?xml version="1.0" encoding="UTF-8"?>
<map version="1.10" tiledversion="1.11.2" orientation="orthogonal" renderorder="right-down" width="10" height="15" tilewidth="64" tileheight="64" infinite="0" nextlayerid="3" nextobjectid="9">
    <tileset firstgid="1" source="default.tsx"/>
    <layer id="1" name="Tile Layer 1" width="10" height="15">
        <data encoding="csv">
8,11,11,11,11,11,11,11,11,10,
12,1,1,1,1,1,1,1,1,12,
12,1,1,1,1,1,1,1,1,12,
12,1,1,8,11,10,1,1,1,12,
12,1,8,4,44,2,10,1,1,12,
12,1,12,26,44,26,12,1,1,12,
12,1,12,44,44,44,12,1,1,12,
12,1,12,44,44,44,12,1,1,12,
12,1,12,44,44,44,12,1,1,12,
12,1,2,9,19,9,4,1,1,12,
12,1,1,12,44,12,1,1,1,12,
12,1,1,2,19,4,1,1,25,12,
12,39,1,1,1,1,1,1,1,12,
2,11,11,11,11,11,11,10,33,12,
34,34,34,34,34,34,34,2,11,4
</data>
    </layer>
    <objectgroup id="2" name="waypoints">
        <object id="1" x="96" y="96">
            <properties>
                <property name="link-0" type="object" value="2"/>
            </properties>
            <point/>
        </object>
        <object id="2" x="480" y="96">
            <properties>
                <property name="link-0" type="object" value="5"/>
                <property name="link-1" type="object" value="1"/>
            </properties>
            <point/>
        </object>
        <object id="3" x="288" y="288">
            <properties>
                <property name="link-0" type="object" value="7"/>
            </properties>
            <point/>
        </object>
        <object id="4" x="96" y="672">
            <properties>
                <property name="link-0" type="object" value="6"/>
                <property name="link-1" type="object" value="1"/>
            </properties>
            <point/>
        </object>
        <object id="5" x="480" y="736">
            <properties>
                <property name="link-0" type="object" value="8"/>
                <property name="link-1" type="object" value="2"/>
            </properties>
            <point/>
        </object>
        <object id="6" x="224" y="800">
            <properties>
                <property name="link-0" type="object" value="7"/>
                <property name="link-1" type="object" value="4"/>
                <property name="link-2" type="object" value="8"/>
            </properties>
            <point/>
        </object>
        <object id="7" x="288" y="800">
            <properties>
                <property name="link-0" type="object" value="6"/>
                <property name="link-1" type="object" value="8"/>
                <property name="link-2" type="object" value="3"/>
            </properties>
            <point/>
        </object>
        <object id="8" x="544" y="800">
            <properties>
                <property name="link-0" type="object" value="5"/>
                <property name="link-1" type="object" value="7"/>
                <property name="link-2" type="object" value="6"/>
            </properties>
            <point/>
        </object>
    </objectgroup>
</map>
