<?xml version="1.0" encoding="UTF-8"?>
<map version="1.10" tiledversion="1.11.2" orientation="orthogonal" renderorder="right-down" width="38" height="12" tilewidth="64" tileheight="64" infinite="0" nextlayerid="3" nextobjectid="14">
    <tileset firstgid="1" source="default.tsx"/>
    <layer id="1" name="Tile Layer 1" width="38" height="12">
        <data encoding="csv">
8,11,11,11,11,11,11,11,9,11,11,11,11,11,11,11,9,11,11,10,34,34,34,34,34,34,34,34,34,34,34,34,34,34,34,34,34,34,
12,1,1,1,1,1,1,1,28,1,1,1,1,1,1,1,28,1,25,12,34,34,34,34,34,34,34,34,34,34,34,34,34,34,34,34,34,34,
2,11,11,11,11,11,11,11,7,1,8,11,11,11,11,19,7,1,1,5,11,11,11,11,11,11,11,10,34,34,34,34,34,34,34,34,34,34,
34,34,34,34,34,34,34,34,12,1,12,1,1,1,1,1,2,11,11,7,1,1,1,1,1,1,1,5,11,11,11,10,34,34,34,34,34,34,
34,34,34,34,34,34,34,34,12,33,12,1,1,1,1,1,1,1,1,28,1,1,1,33,1,1,1,28,1,1,25,12,34,34,34,34,34,34,
34,34,34,34,34,34,34,34,5,11,4,1,1,1,17,1,1,1,1,12,1,1,1,1,1,1,1,5,11,11,11,4,34,34,34,34,34,34,
8,11,11,11,11,11,11,11,7,39,24,1,1,1,1,1,1,1,25,5,11,11,11,11,11,11,11,4,34,34,34,34,34,34,34,34,34,34,
12,1,1,1,1,1,1,1,28,1,1,1,1,1,1,27,1,27,39,12,34,34,34,34,34,34,34,34,34,34,34,34,34,34,34,34,34,34,
2,11,11,11,11,11,11,11,3,11,11,11,11,11,11,11,11,11,11,4,34,34,34,34,34,34,34,34,34,34,34,34,34,34,34,34,34,34,
34,34,34,34,34,34,34,34,34,34,34,34,34,34,34,34,34,34,34,34,34,34,34,34,34,34,34,34,34,34,34,34,8,11,11,11,11,10,
34,34,34,34,34,34,34,34,34,34,34,34,34,34,34,34,34,34,34,34,34,34,34,34,34,34,34,34,34,34,34,34,12,33,1,1,1,12,
34,34,34,34,34,34,34,34,34,34,34,34,34,34,34,34,34,34,34,34,34,34,34,34,34,34,34,34,34,34,34,34,2,11,11,11,11,4
</data>
    </layer>
    <objectgroup id="2" name="waypoints">
        <object id="1" x="96" y="96">
            <properties>
                <property name="link-0" type="object" value="2"/>
                <property name="link-1" type="object" value="2"/>
                <property name="link-2" type="object" value="2"/>
            </properties>
            <point/>
        </object>
        <object id="2" x="608" y="96">
            <properties>
                <property name="link-0" type="object" value="1"/>
                <property name="link-1" type="object" value="5"/>
                <property name="link-2" type="object" value="3"/>
                <property name="link-3" type="object" value="4"/>
            </properties>
            <point/>
        </object>
        <object id="3" x="992" y="96">
            <properties>
                <property name="link-0" type="object" value="2"/>
                <property name="link-1" type="object" value="4"/>
                <property name="link-2" type="object" value="6"/>
            </properties>
            <point/>
        </object>
        <object id="4" x="1120" y="96">
            <properties>
                <property name="link-0" type="object" value="3"/>
            </properties>
            <point/>
        </object>
        <object id="5" x="608" y="224">
            <properties>
                <property name="link-0" type="object" value="2"/>
            </properties>
            <point/>
        </object>
        <object id="6" x="992" y="288">
            <properties>
                <property name="link-0" type="object" value="3"/>
                <property name="link-1" type="object" value="7"/>
                <property name="link-2" type="object" value="8"/>
                <property name="link-3" type="object" value="10"/>
            </properties>
            <point/>
        </object>
        <object id="7" x="1888" y="288">
            <properties>
                <property name="link-0" type="object" value="6"/>
            </properties>
            <point/>
        </object>
        <object id="8" x="992" y="416">
            <properties>
                <property name="link-0" type="object" value="6"/>
                <property name="link-1" type="object" value="11"/>
            </properties>
            <point/>
        </object>
        <object id="9" x="96" y="480">
            <properties>
                <property name="link-0" type="object" value="10"/>
            </properties>
            <point/>
        </object>
        <object id="10" x="800" y="480">
            <properties>
                <property name="link-0" type="object" value="11"/>
                <property name="link-1" type="object" value="9"/>
                <property name="link-2" type="object" value="6"/>
            </properties>
            <point/>
        </object>
        <object id="11" x="928" y="480">
            <properties>
                <property name="link-0" type="object" value="8"/>
                <property name="link-1" type="object" value="10"/>
                <property name="link-2" type="object" value="9"/>
            </properties>
            <point/>
        </object>
        <object id="12" x="2208" y="672">
            <properties>
                <property name="link-0" type="object" value="12"/>
                <property name="link-1" type="object" value="13"/>
            </properties>
            <point/>
        </object>
        <object id="13" x="2336" y="672">
            <properties>
                <property name="link-0" type="object" value="13"/>
                <property name="link-1" type="object" value="12"/>
            </properties>
            <point/>
        </object>
    </objectgroup>
</map>
